agency/modern8/images/m8-logo.svg

<svg enable-background="new 0 0 319.164 320" height="320" viewBox="0 0 319.164 320" width="319.164" xmlns="http://www.w3.org/2000/svg"><path d="m169 320c-6.666 0-13.333 0-20 0-1.256-.308-2.498-.795-3.771-.897-67.72-5.454-126.253-55.943-141.424-122.092-1.444-6.297-2.545-12.672-3.805-19.011 0-12 0-24 0-36 .33-1.273.805-2.528.967-3.822 8.319-66.529 61.371-122.882 127.351-135.18 6.198-1.155 12.453-2.006 18.682-2.998h25c2.443.398 4.877.875 7.332 1.183 77.958 9.79 136.819 74.325 139.724 153.211 2.769 75.205-47.646 142.46-120.616 160.513-9.643 2.385-19.619 3.428-29.44 5.093zm124.791-160.036c-.215-74.377-60.408-134.573-134.582-134.589-74.378-.016-134.425 60.784-134.24 135.922.18 72.792 60.8 132.925 134.07 132.993 74.262.069 134.964-60.441 134.752-134.326z"/><g clip-rule="evenodd" fill-rule="evenodd"><path d="m159.473 149.33c-15.119 25.219-33.52 34.349-56.305 28.194-19.543-5.278-33.854-23.396-34.109-43.183-.283-21.921 12.647-40.191 32.718-46.229 22.955-6.905 41.198 1.783 57.591 27.429 16.135-25.608 35.046-34.524 57.956-27.326 19.621 6.164 33.275 25.299 32.473 45.503-.865 21.74-15.381 39.44-36.021 44.27-17.901 4.187-42.367-2.123-54.303-28.658zm43.941-37.638c-11.566-.108-21.125 9.154-21.299 20.641-.174 11.502 9.699 21.494 21.173 21.427 11.362-.067 20.907-9.643 21.005-21.07.098-11.482-9.257-20.889-20.879-20.998zm-87.837-.011c-11.656.013-21.139 9.349-21.096 20.77.044 11.608 9.294 21.118 20.72 21.303 11.426.184 21.566-9.82 21.477-21.189-.091-11.445-9.641-20.896-21.101-20.884z"/><path d="m107.9 239.468c0-8.565 0-16.955 0-25.657h102.865v25.657c-34.191 0-68.367 0-102.865 0z"/></g></svg>

<?xml version="1.0" encoding="utf-8"?>
<!-- Generator: Adobe Illustrator 16.0.0, SVG Export Plug-In . SVG Version: 6.00 Build 0)  -->
<!DOCTYPE svg PUBLIC "-//W3C//DTD SVG 1.1//EN" "http://www.w3.org/Graphics/SVG/1.1/DTD/svg11.dtd">
<svg version="1.1" id="Layer_1" xmlns="http://www.w3.org/2000/svg" xmlns:xlink="http://www.w3.org/1999/xlink" x="0px" y="0px"
	 width="319.164px" height="320px" viewBox="0 0 319.164 320" enable-background="new 0 0 319.164 320" xml:space="preserve">
<g>
	<path d="M169,320c-6.666,0-13.333,0-20,0c-1.256-0.308-2.498-0.795-3.771-0.897C77.509,313.649,18.976,263.16,3.805,197.011
		C2.361,190.714,1.26,184.339,0,178c0-12,0-24,0-36c0.33-1.273,0.805-2.528,0.967-3.822C9.286,71.649,62.338,15.296,128.318,2.998
		C134.516,1.843,140.771,0.992,147,0c8.333,0,16.666,0,25,0c2.443,0.398,4.877,0.875,7.332,1.183
		c77.958,9.79,136.819,74.325,139.724,153.211c2.769,75.205-47.646,142.46-120.616,160.513C188.797,317.292,178.821,318.335,169,320
		z M293.791,159.964c-0.215-74.377-60.408-134.573-134.582-134.589C84.831,25.359,24.784,86.159,24.969,161.297
		c0.18,72.792,60.8,132.925,134.07,132.993C233.301,294.359,294.003,233.849,293.791,159.964z"/>
	<path fill-rule="evenodd" clip-rule="evenodd" d="M159.473,149.33c-15.119,25.219-33.52,34.349-56.305,28.194
		c-19.543-5.278-33.854-23.396-34.109-43.183c-0.283-21.921,12.647-40.191,32.718-46.229c22.955-6.905,41.198,1.783,57.591,27.429
		c16.135-25.608,35.046-34.524,57.956-27.326c19.621,6.164,33.275,25.299,32.473,45.503c-0.865,21.74-15.381,39.44-36.021,44.27
		C195.875,182.175,171.409,175.865,159.473,149.33z M203.414,111.692c-11.566-0.108-21.125,9.154-21.299,20.641
		c-0.174,11.502,9.699,21.494,21.173,21.427c11.362-0.067,20.907-9.643,21.005-21.07
		C224.391,121.208,215.036,111.801,203.414,111.692z M115.577,111.681c-11.656,0.013-21.139,9.349-21.096,20.77
		c0.044,11.608,9.294,21.118,20.72,21.303c11.426,0.184,21.566-9.82,21.477-21.189C136.587,121.12,127.037,111.669,115.577,111.681z
		"/>
	<path fill-rule="evenodd" clip-rule="evenodd" d="M107.9,239.468c0-8.565,0-16.955,0-25.657c34.341,0,68.401,0,102.865,0
		c0,8.501,0,16.894,0,25.657C176.574,239.468,142.398,239.468,107.9,239.468z"/>
</g>
</svg>
